images/icon/linkedin-icon.svg

<svg height="100" viewBox="0 0 100 100" width="100" xmlns="http://www.w3.org/2000/svg"><path d="m50 4c-25.363281 0-46 20.632812-46 46s20.636719 46 46 46 46-20.632812 46-46-20.636719-46-46-46zm-14 66h-8v-30h8zm-4-36c-2.210938 0-4-1.789062-4-4s1.789062-4 4-4 4 1.789062 4 4-1.789062 4-4 4zm42 36h-8v-15c0-3.851562-3.148438-7-7-7s-7 3.148438-7 7v15h-8v-30h8v3.632812c2.335938-2.246093 5.503906-3.632812 9-3.632812 7.179688 0 13 5.820312 13 13zm0 0" fill="#fff"/></svg>

<?xml version="1.0" encoding="UTF-8"?>
<svg xmlns="http://www.w3.org/2000/svg" xmlns:xlink="http://www.w3.org/1999/xlink" viewBox="0 0 100 100" width="100px" height="100px">
<g id="surface120651251">
<path style=" stroke:none;fill-rule:nonzero;fill:rgb(100%,100%,100%);fill-opacity:1;" d="M 50 4 C 24.636719 4 4 24.632812 4 50 C 4 75.367188 24.636719 96 50 96 C 75.363281 96 96 75.367188 96 50 C 96 24.632812 75.363281 4 50 4 Z M 36 70 L 28 70 L 28 40 L 36 40 Z M 32 34 C 29.789062 34 28 32.210938 28 30 C 28 27.789062 29.789062 26 32 26 C 34.210938 26 36 27.789062 36 30 C 36 32.210938 34.210938 34 32 34 Z M 74 70 L 66 70 L 66 55 C 66 51.148438 62.851562 48 59 48 C 55.148438 48 52 51.148438 52 55 L 52 70 L 44 70 L 44 40 L 52 40 L 52 43.632812 C 54.335938 41.386719 57.503906 40 61 40 C 68.179688 40 74 45.820312 74 53 Z M 74 70 "/>
</g>
</svg>
